packages/tokens/icons/roadmap/size16Px.svg

<svg viewBox="0 0 16 16" fill="none" xmlns="http://www.w3.org/2000/svg" width="1em" height="1em"><path d="M3 13L7.5 8.5" stroke="currentColor" stroke-linecap="round" stroke-linejoin="round" stroke-dasharray="1.85 1.85"/><path d="M5 8H8V11" stroke="currentColor" stroke-linecap="round" stroke-linejoin="round"/><path d="M9.61522 5.21469L8.49505 4.13315C8.28688 3.93216 8.39163 3.58002 8.67581 3.52548L10.334 3.20727C10.4479 3.18541 10.5441 3.10959 10.592 3.00394L11.1747 1.71791C11.3014 1.43826 11.6986 1.43826 11.8253 1.71791L12.408 3.00393C12.4559 3.10959 12.5521 3.18541 12.666 3.20727L14.3242 3.52548C14.6084 3.58002 14.7131 3.93216 14.5049 4.13315L13.3848 5.21469C13.3004 5.29618 13.2614 5.41393 13.2805 5.52969L13.5678 7.27358C13.6163 7.56787 13.304 7.78843 13.0429 7.64435L11.6725 6.88829C11.5651 6.82904 11.4349 6.82904 11.3275 6.88829L9.95711 7.64435C9.69596 7.78843 9.3837 7.56787 9.43219 7.27358L9.71954 5.52969C9.73861 5.41393 9.69962 5.29618 9.61522 5.21469Z" stroke="currentColor"/></svg>

<svg xmlns="http://www.w3.org/2000/svg" fill="none" viewBox="0 0 16 16" width="1em" height="1em"><path stroke="currentColor" stroke-dasharray="1.85 1.85" stroke-linecap="round" stroke-linejoin="round" d="m3 13 4.5-4.5"/><path stroke="currentColor" stroke-linecap="round" stroke-linejoin="round" d="M5 8h3v3"/><path stroke="currentColor" d="m9.615 5.215-1.12-1.082a.357.357 0 0 1 .18-.608l1.659-.318a.357.357 0 0 0 .258-.203l.583-1.286a.357.357 0 0 1 .65 0l.583 1.286a.357.357 0 0 0 .258.203l1.658.318a.357.357 0 0 1 .18.608l-1.12 1.082a.357.357 0 0 0-.104.315l.288 1.744a.357.357 0 0 1-.525.37l-1.37-.756a.357.357 0 0 0-.345 0l-1.37.756a.357.357 0 0 1-.526-.37L9.72 5.53a.357.357 0 0 0-.105-.315Z"/></svg>
